public/icons/attach_image.svg

<svg width="18" height="18" viewBox="0 0 18 18" fill="none" xmlns="http://www.w3.org/2000/svg">
<path fill-rule="evenodd" clip-rule="evenodd" d="M4 6.08341C4 4.93282 4.93274 4.00008 6.08333 4.00008C7.23392 4.00008 8.16666 4.93282 8.16666 6.08341C8.16666 7.23401 7.23392 8.16675 6.08333 8.16675C4.93274 8.16675 4 7.23401 4 6.08341ZM6.08333 5.66675C5.85321 5.66675 5.66666 5.8533 5.66666 6.08341C5.66666 6.31353 5.85321 6.50008 6.08333 6.50008C6.31345 6.50008 6.5 6.31353 6.5 6.08341C6.5 5.8533 6.31345 5.66675 6.08333 5.66675Z" fill="#61646B"/>
<path fill-rule="evenodd" clip-rule="evenodd" d="M0.666664 3.16675C0.666664 1.78604 1.78595 0.666748 3.16666 0.666748H14.8333C16.214 0.666748 17.3333 1.78604 17.3333 3.16675V14.8334C17.3333 16.2141 16.214 17.3334 14.8333 17.3334H3.16666C1.78595 17.3334 0.666664 16.2141 0.666664 14.8334V3.16675ZM3.16666 2.33341C2.70643 2.33341 2.33333 2.70651 2.33333 3.16675V14.8334C2.33333 15.1908 2.55827 15.4956 2.87428 15.614L11.7441 6.74416C12.0696 6.41872 12.5972 6.41872 12.9226 6.74416L15.6667 9.48817V3.16675C15.6667 2.70651 15.2936 2.33341 14.8333 2.33341H3.16666ZM15.6667 11.8452L12.3334 8.51193L5.17857 15.6667H14.8333C15.2936 15.6667 15.6667 15.2937 15.6667 14.8334V11.8452Z" fill="#61646B"/>
</svg>

<svg xmlns="http://www.w3.org/2000/svg" width="18" height="18" fill="none"><path fill="#61646B" fill-rule="evenodd" d="M4 6.083a2.083 2.083 0 1 1 4.167 0 2.083 2.083 0 0 1-4.167 0Zm2.083-.416a.417.417 0 1 0 0 .833.417.417 0 0 0 0-.833Z" clip-rule="evenodd"/><path fill="#61646B" fill-rule="evenodd" d="M.667 3.167a2.5 2.5 0 0 1 2.5-2.5h11.666a2.5 2.5 0 0 1 2.5 2.5v11.666a2.5 2.5 0 0 1-2.5 2.5H3.167a2.5 2.5 0 0 1-2.5-2.5V3.167Zm2.5-.834a.833.833 0 0 0-.834.834v11.666c0 .358.225.663.541.781l8.87-8.87a.833.833 0 0 1 1.179 0l2.744 2.744V3.167a.833.833 0 0 0-.834-.834H3.167Zm12.5 9.512-3.334-3.333-7.154 7.155h9.654c.46 0 .834-.373.834-.834v-2.988Z" clip-rule="evenodd"/></svg>
